zag2/images/other/contract.svg

<svg width="50" height="50" viewBox="0 0 50 50" fill="none" xmlns="http://www.w3.org/2000/svg">
<g clip-path="url(#clip0)">
<path d="M49.9081 11.8565C49.736 11.2165 49.3161 10.671 48.7417 10.3402C48.1668 10.0078 47.4834 9.91791 46.8422 10.09C46.2018 10.2625 45.6563 10.6819 45.3255 11.2564L44.9089 11.9814C44.5131 11.7539 44.0074 11.8878 43.7759 12.2816L41.6596 15.889L40.9346 15.4724C40.7426 15.3613 40.5139 15.3312 40.2999 15.389C40.0855 15.4472 39.9033 15.5879 39.793 15.7808C39.5672 16.179 39.7047 16.6851 40.1014 16.9138L40.8264 17.3304L33.7442 29.6033L31.9945 34.2778L31.1613 35.8355C30.6735 36.6842 30.7255 37.7391 31.2947 38.5353L29.42 40.8347L28.8952 39.5186C28.6584 38.9319 28.1104 38.53 27.4803 38.4807C26.8497 38.4311 26.2455 38.7427 25.9205 39.2851L25.6206 39.7932L25.3375 36.4604C25.2724 35.672 24.6617 35.0381 23.8765 34.9429C23.0909 34.8481 22.3473 35.3189 22.0962 36.069L20.0466 42.2179C19.9034 42.6528 20.1378 43.1215 20.5714 43.2679C20.6528 43.3058 20.7403 43.3286 20.8298 43.3342C21.1878 43.3355 21.5067 43.1072 21.6215 42.7679L23.6625 36.6191L23.9542 40.0015C24.0145 40.7232 24.5332 41.3233 25.2386 41.4868C25.9441 41.6504 26.6739 41.3396 27.0453 40.7183L27.3537 40.2098L27.8704 41.5182C28.0897 42.0694 28.5856 42.4628 29.1727 42.5503C29.7597 42.6378 30.3488 42.4063 30.7199 41.9429L32.6613 39.4852C32.8761 39.5414 33.0974 39.5694 33.3195 39.5686C34.2125 39.5755 35.0416 39.1052 35.494 38.3351L36.3272 36.9437L39.5017 33.0862L46.6587 20.6631L47.3837 21.0797C47.5769 21.1904 47.7177 21.3731 47.7751 21.5883C47.8328 21.8019 47.8027 22.0297 47.6921 22.2213L44.3593 27.9955C44.2336 28.1851 44.1909 28.4178 44.2413 28.6399C44.2918 28.8616 44.4305 29.0532 44.6258 29.17C44.8178 29.2815 45.0464 29.3116 45.2604 29.2538C45.4748 29.1956 45.6571 29.0549 45.7673 28.862L49.1001 23.0879C49.4325 22.513 49.5224 21.8295 49.3499 21.1884C49.1774 20.548 48.758 20.0025 48.1835 19.6717L47.4585 19.2551L49.5415 15.6473C49.7689 15.2515 49.6351 14.7462 49.2417 14.5143L49.6583 13.7893C49.9996 13.2055 50.0899 12.5082 49.9081 11.8565ZM46.7669 12.0896C46.8772 11.8967 47.0602 11.7556 47.2755 11.6982C47.4895 11.6453 47.7157 11.675 47.9085 11.7816C48.1017 11.8919 48.2425 12.0749 48.3003 12.2897C48.3532 12.5037 48.3235 12.7299 48.2169 12.9228L47.8003 13.6477L46.3503 12.8145L46.7669 12.0896ZM35.4106 35.3526L34.994 35.111L33.7609 34.3941L34.944 31.2282L37.5685 32.7444L35.4106 35.3526ZM32.911 37.7602C32.5591 37.5149 32.4509 37.043 32.6613 36.6687L33.0778 35.9442L34.5274 36.7773L34.1108 37.4938C33.994 37.6964 33.7979 37.8404 33.5697 37.8912C33.3415 37.9417 33.1027 37.8945 32.911 37.7602ZM38.5184 31.3783L35.6356 29.7119L42.3011 18.1636L45.1839 19.83L38.5184 31.3783ZM46.0171 18.3886L43.1343 16.7222L44.8007 13.8394L47.6835 15.5057L46.0171 18.3886Z" fill="#FF4900"/>
<path d="M13.1476 37.3436L10.1985 40.285L8.43201 38.5186C8.10695 38.1955 7.58214 38.1955 7.25708 38.5186C7.09923 38.6752 7.01054 38.888 7.01054 39.1101C7.01054 39.3322 7.09923 39.5454 7.25708 39.7016L9.02355 41.4681C9.33599 41.7781 9.75828 41.9518 10.1985 41.9514C10.6411 41.9538 11.0671 41.7801 11.3815 41.4681L14.3225 38.5186C14.6057 38.1878 14.5866 37.6951 14.279 37.3876C13.971 37.0796 13.4783 37.0605 13.1476 37.3436Z" fill="#FF4900"/>
<path d="M3.33275 39.585C3.33275 43.4966 6.5036 46.6671 10.4149 46.6671C14.3262 46.6671 17.497 43.4966 17.497 39.585C17.497 39.1248 17.1239 38.7518 16.6638 38.7518C16.2037 38.7518 15.8306 39.1248 15.8306 39.585C15.8306 42.576 13.4059 45.0007 10.4149 45.0007C7.42385 45.0007 4.99913 42.576 4.99913 39.585C4.99913 36.5939 7.42385 34.1692 10.4149 34.1692C11.5874 34.166 12.7285 34.5463 13.6642 35.2526C14.0324 35.5288 14.5548 35.454 14.8306 35.0858C15.1069 34.7176 15.0324 34.1957 14.6642 33.9194C12.5182 32.31 9.64678 32.0512 7.24769 33.2506C4.8482 34.4503 3.33275 36.9027 3.33275 39.585Z" fill="#FF4900"/>
<path d="M29.9949 6.67383C30.455 6.67383 30.8281 6.30117 30.8281 5.84064C30.8281 5.38051 30.455 5.00745 29.9949 5.00745H8.33193C7.8718 5.00745 7.49873 5.38051 7.49873 5.84064V9.1734C7.49873 9.63394 7.8718 10.0066 8.33193 10.0066H29.9949C30.455 10.0066 30.8281 9.63394 30.8281 9.1734C30.8281 8.71328 30.455 8.34021 29.9949 8.34021H9.16512V6.67383H29.9949Z" fill="#FF4900"/>
<path d="M10.8315 11.673C10.3714 11.673 9.99831 12.0461 9.99831 12.5062C9.99831 12.9668 10.3714 13.3394 10.8315 13.3394H27.4953C27.9555 13.3394 28.3285 12.9668 28.3285 12.5062C28.3285 12.0461 27.9555 11.673 27.4953 11.673H10.8315Z" fill="#FF4900"/>
<path d="M32.4945 17.5053H14.1643C13.7041 17.5053 13.3311 17.8784 13.3311 18.3385C13.3311 18.799 13.7041 19.1717 14.1643 19.1717H32.4945C32.9546 19.1717 33.3277 18.799 33.3277 18.3385C33.3277 17.8784 32.9546 17.5053 32.4945 17.5053Z" fill="#FF4900"/>
<path d="M24.1625 23.3377C24.1625 22.8776 23.7895 22.5045 23.3294 22.5045H6.66553C6.2054 22.5045 5.83234 22.8776 5.83234 23.3377C5.83234 23.7982 6.2054 24.1709 6.66553 24.1709H23.3294C23.7895 24.1709 24.1625 23.7982 24.1625 23.3377Z" fill="#FF4900"/>
<path d="M32.4945 22.5045H26.6621C26.202 22.5045 25.8289 22.8776 25.8289 23.3377C25.8289 23.7982 26.202 24.1709 26.6621 24.1709H32.4945C32.9546 24.1709 33.3277 23.7982 33.3277 23.3377C33.3277 22.8776 32.9546 22.5045 32.4945 22.5045Z" fill="#FF4900"/>
<path d="M14.9974 28.3368C15.4576 28.3368 15.8306 27.9642 15.8306 27.5037C15.8306 27.0435 15.4576 26.6705 14.9974 26.6705H6.66553C6.2054 26.6705 5.83234 27.0435 5.83234 27.5037C5.83234 27.9642 6.2054 28.3368 6.66553 28.3368H14.9974Z" fill="#FF4900"/>
<path d="M18.3302 28.3368H24.1626C24.6227 28.3368 24.9958 27.9642 24.9958 27.5037C24.9958 27.0435 24.6227 26.6705 24.1626 26.6705H18.3302C17.8701 26.6705 17.497 27.0435 17.497 27.5037C17.497 27.9642 17.8701 28.3368 18.3302 28.3368Z" fill="#FF4900"/>
<path d="M37.4936 38.3353C37.0335 38.3353 36.6604 38.7084 36.6604 39.1685V47.5004C36.6604 47.9609 36.2874 48.3336 35.8272 48.3336H2.49957C2.03945 48.3336 1.66638 47.9609 1.66638 47.5004V2.50806C1.66638 2.04793 2.03945 1.67487 2.49957 1.67487H35.8272C36.2874 1.67487 36.6604 2.04793 36.6604 2.50806V18.1556C36.6604 18.6157 37.0335 18.9888 37.4936 18.9888C37.9537 18.9888 38.3268 18.6157 38.3268 18.1556V2.50806C38.3268 1.12768 37.2076 0.00848389 35.8272 0.00848389H2.49957C1.11919 0.00848389 0 1.12768 0 2.50806V47.5004C0 48.8812 1.11919 50 2.49957 50H35.8272C37.2076 50 38.3268 48.8812 38.3268 47.5004V39.1685C38.3268 38.7084 37.9537 38.3353 37.4936 38.3353Z" fill="#FF4900"/>
</g>
<defs>
<clipPath id="clip0">
<rect width="50" height="50" fill="white"/>
</clipPath>
</defs>
</svg>

<svg width="50" height="50" fill="none" xmlns="http://www.w3.org/2000/svg"><g clip-path="url(#clip0)" fill="#FF4900"><path d="M49.908 11.857a2.5 2.5 0 00-1.166-1.517 2.5 2.5 0 00-3.416.916l-.417.725a.833.833 0 00-1.133.3L41.66 15.89l-.725-.417a.834.834 0 00-1.142.309.833.833 0 00.308 1.133l.725.416-7.082 12.273-1.75 4.675-.833 1.558a2.5 2.5 0 00.134 2.7l-1.875 2.299-.525-1.316a1.666 1.666 0 00-2.974-.234l-.3.508-.284-3.333a1.667 1.667 0 00-3.24-.391l-2.05 6.149a.833.833 0 00.524 1.05c.082.038.17.06.259.066a.833.833 0 00.792-.566l2.04-6.149.292 3.383a1.667 1.667 0 003.091.716l.309-.508.516 1.308a1.666 1.666 0 002.85.425l1.941-2.458c.215.056.436.084.658.084a2.5 2.5 0 002.175-1.234l.833-1.391 3.175-3.858 7.157-12.423.725.417a.833.833 0 01.308 1.141l-3.333 5.774a.832.832 0 00.267 1.175.832.832 0 001.141-.308l3.333-5.774a2.498 2.498 0 00-.916-3.416l-.725-.417 2.082-3.608a.833.833 0 00-.3-1.133l.417-.725a2.499 2.499 0 00.25-1.932zm-3.141.233a.833.833 0 01.508-.392.875.875 0 01.633.084c.194.11.334.293.392.508a.875.875 0 01-.083.633l-.417.725-1.45-.833.417-.725zM35.41 35.353l-.417-.242-1.233-.717 1.183-3.166 2.624 1.516-2.157 2.609zm-2.5 2.407a.833.833 0 01-.25-1.091l.417-.725 1.45.833-.417.717a.833.833 0 01-1.2.266zm5.607-6.382l-2.882-1.666L42.3 18.164l2.883 1.666-6.666 11.548zm7.5-12.99l-2.884-1.666 1.667-2.883 2.883 1.667-1.667 2.883zM13.148 37.344l-2.95 2.941-1.766-1.766a.833.833 0 10-1.175 1.183l1.767 1.766c.312.31.734.484 1.175.483.442.003.868-.17 1.183-.483l2.94-2.95a.833.833 0 00-1.174-1.174z"/><path d="M3.333 39.585a7.082 7.082 0 1014.164 0 .833.833 0 00-1.666 0 5.416 5.416 0 11-5.416-5.416 5.368 5.368 0 013.25 1.084.833.833 0 101-1.334 7.083 7.083 0 00-11.332 5.666zM29.995 6.674a.833.833 0 100-1.667H8.332a.833.833 0 00-.833.834v3.332c0 .46.373.834.833.834h21.663a.833.833 0 100-1.667H9.165V6.674h20.83zm-19.163 4.999a.833.833 0 000 1.666h16.663a.833.833 0 100-1.666H10.831zm21.663 5.832h-18.33a.833.833 0 000 1.667h18.33a.833.833 0 100-1.667zm-8.332 5.833a.833.833 0 00-.834-.834H6.666a.833.833 0 000 1.667h16.663c.46 0 .834-.373.834-.833zm8.332-.833h-5.833a.833.833 0 000 1.666h5.833a.833.833 0 100-1.666zm-17.498 5.832a.833.833 0 100-1.666H6.666a.833.833 0 100 1.666h8.331zm3.333 0h5.833a.833.833 0 100-1.666H18.33a.833.833 0 000 1.666z"/><path d="M37.494 38.335a.833.833 0 00-.834.834V47.5c0 .46-.373.834-.833.834H2.5a.833.833 0 01-.834-.834V2.508c0-.46.373-.833.834-.833h33.327c.46 0 .833.373.833.833v15.648a.833.833 0 001.667 0V2.508a2.5 2.5 0 00-2.5-2.5H2.5a2.5 2.5 0 00-2.5 2.5V47.5A2.5 2.5 0 002.5 50h33.327a2.5 2.5 0 002.5-2.5v-8.33a.833.833 0 00-.833-.834z"/></g><defs><clipPath id="clip0"><path fill="#fff" d="M0 0h50v50H0z"/></clipPath></defs></svg>
